icons/glyphs/glyph-fire.svg

<?xml version="1.0" encoding="UTF-8" standalone="no"?><svg height="16" viewBox="0 0 4.2333332 4.2333332" width="16" xmlns="http://www.w3.org/2000/svg"><sodipodi:namedview/><metadata><rdf:RDF><cc:Work><dc:format>image/svg+xml</dc:format><dc:type/><dc:title/></cc:Work></rdf:RDF></metadata><path d="m1.9716421 0c .5114032.53678396.5089173.88352838.3013813 1.6537122-.0753958.2798003.3258801.3264554.3021374.0678044-.0372615-.4059259.0520212-.7192687.4491127-.95947612-.0676532 1.41926962.7355944 1.26585362.7731796 2.26335332.0200289.5315623-.4989168.8800745-.9671675 1.1197557.2018855-.5166215-.0905338-.8378465-.4689223-.9470134-.4919297-.1419242-.5909954-.4972087-.5533579-.7209005-.1506008.1155127-.95658341 1.0579813-.0992415 1.7560976-.3746375-.0666106-1.38664929-.5065993-1.26305099-1.6370217.07141366-.6531449 1.14045039-1.4594468 1.36938479-1.75684072.2719286-.35324469.1565444-.83947078.1565444-.83947078z" fill="#d0d0d0"/></svg>

<?xml version="1.0" encoding="UTF-8" standalone="no"?>
<!-- Created with Inkscape (http://www.inkscape.org/) -->

<svg
   xmlns:dc="http://purl.org/dc/elements/1.1/"
   xmlns:cc="http://creativecommons.org/ns#"
   xmlns:rdf="http://www.w3.org/1999/02/22-rdf-syntax-ns#"
   xmlns:svg="http://www.w3.org/2000/svg"
   xmlns="http://www.w3.org/2000/svg"
   xmlns:sodipodi="http://sodipodi.sourceforge.net/DTD/sodipodi-0.dtd"
   xmlns:inkscape="http://www.inkscape.org/namespaces/inkscape"
   width="16"
   height="16"
   viewBox="0 0 4.2333332 4.2333332"
   version="1.1"
   id="svg8"
   inkscape:version="0.92+devel (f96dc7e339, 2017-07-28, custom)"
   sodipodi:docname="glyph-fire.svg">
  <defs
     id="defs2" />
  <sodipodi:namedview
     id="base"
     pagecolor="#002466"
     bordercolor="#ffffff"
     borderopacity="0.38039216"
     inkscape:pageopacity="1"
     inkscape:pageshadow="2"
     inkscape:zoom="36.415999"
     inkscape:cx="11.373562"
     inkscape:cy="8.345048"
     inkscape:document-units="px"
     inkscape:current-layer="svg8"
     inkscape:document-rotation="0"
     showgrid="false"
     inkscape:showpageshadow="false"
     borderlayer="true"
     inkscape:window-width="1920"
     inkscape:window-height="1051"
     inkscape:window-x="0"
     inkscape:window-y="0"
     inkscape:window-maximized="1"
     units="px" />
  <metadata
     id="metadata5">
    <rdf:RDF>
      <cc:Work
         rdf:about="">
        <dc:format>image/svg+xml</dc:format>
        <dc:type
           rdf:resource="http://purl.org/dc/dcmitype/StillImage" />
        <dc:title></dc:title>
      </cc:Work>
    </rdf:RDF>
  </metadata>
  <path
     style="opacity:1;fill:#d0d0d0;stroke:none;stroke-width:0.26458332px;stroke-linecap:butt;stroke-linejoin:miter;stroke-opacity:1"
     d="M 1.9716421,0 C 2.4830453,0.53678396 2.4805594,0.88352838 2.2730234,1.6537122 2.1976276,1.9335125 2.5989035,1.9801676 2.5751608,1.7215166 2.5378993,1.3155907 2.627182,1.0022479 3.0242735,0.76204048 2.9566203,2.1813101 3.7598679,2.0278941 3.7974531,3.0253938 3.817482,3.5569561 3.2985363,3.9054683 2.8302856,4.1451495 3.0321711,3.628528 2.7397518,3.307303 2.3613633,3.1981361 1.8694336,3.0562119 1.7703679,2.7009274 1.8080054,2.4772356 1.6574046,2.5927483 0.85142199,3.5352169 1.7087639,4.2333332 1.3341264,4.1667226 0.32211461,3.7267339 0.44571291,2.5963115 0.51712657,1.9431666 1.5861633,1.1368647 1.8150977,0.83947078 2.0870263,0.48622609 1.9716421,0 1.9716421,0 Z"
     id="path825"
     inkscape:connector-curvature="0"
     sodipodi:nodetypes="csscscsccssc"
     inkscape:label="#" />
</svg>
